X:620
T:Oh Dear What Can the Matter?
R:air
T:o.c on cad e do .tarla.d?
Z:Tempo: Moderate.
M:6/8
L:1/8
Q:80
K:G
d|dBc dBc|dBg dBG|cAB cAB|cAB cBA|
dBc dBc|dBg dBG|DGc BcA|G3z2||
B|d3 d3|dBg dBG|c3 ccc|cAB cBA|
d3 ddd|dBg dBG|DGc BcA|G3 z2||


